cssgg/arrow-align-v.svg

<svg
  width="24"
  height="24"
  viewBox="0 0 24 24"
  fill="none"
  xmlns="http://www.w3.org/2000/svg"
>
  <path d="M7 11L7 13H17V11H7Z" fill="currentColor" />
  <path
    d="M7.75732 18L9.17154 16.5858L11 18.4143V14H13V18.4142L14.8284 16.5858L16.2426 18L12 22.2427L7.75732 18Z"
    fill="currentColor"
  />
  <path
    d="M16.2427 5.99996L14.8285 7.41418L13 5.58572V9.99996H11L11 5.58579L9.17161 7.41418L7.75739 5.99996L12 1.75732L16.2427 5.99996Z"
    fill="currentColor"
  />
</svg>

<svg viewBox="0 0 24 24" xmlns="http://www.w3.org/2000/svg"><g><path d="M7 11v2h10v-2H7Z"/><path d="M7.75 18l1.41-1.42 1.82 1.82v-4.42h2v4.41l1.82-1.83 1.41 1.41 -4.25 4.24 -4.25-4.25Z"/><path d="M16.24 5.99L14.82 7.4l-1.83-1.83v4.41h-2V5.56L9.16 7.38 7.74 5.96l4.24-4.25 4.24 4.24Z"/></g></svg>
